Obsidian/places/16s/folder-documents-symbolic.svg

<svg height="16" width="16" xmlns="http://www.w3.org/2000/svg"><path d="m1.8125 0c-.478082.091222-.8210764.5133685-.8125 1v14c.0000552.552262.4477381.999945 1 1h12c.552262-.000055.999945-.447738 1-1v-10.4375c.0062-.2675647-.0951-.5264505-.28125-.71875l-3.5625-3.5625c-.1923-.1861457-.451185-.28744885-.71875-.28125h-8.4375c-.031233-.001466-.062517-.001466-.09375 0-.031233-.001466-.062517-.001466-.09375 0zm1.1875 2h7v3h3v9h-10zm1 5v1h7.046875v-1zm0 2v1h8.046875v-1zm.09375 2v1h5.953125v-1z" fill="#bebebe"/></svg>

<?xml version="1.0" encoding="UTF-8" standalone="no"?>
<!-- Created with Inkscape (http://www.inkscape.org/) -->

<svg
   xmlns:dc="http://purl.org/dc/elements/1.1/"
   xmlns:cc="http://creativecommons.org/ns#"
   xmlns:rdf="http://www.w3.org/1999/02/22-rdf-syntax-ns#"
   xmlns:svg="http://www.w3.org/2000/svg"
   xmlns="http://www.w3.org/2000/svg"
   xmlns:sodipodi="http://sodipodi.sourceforge.net/DTD/sodipodi-0.dtd"
   xmlns:inkscape="http://www.inkscape.org/namespaces/inkscape"
   id="svg7384"
   height="16"
   width="16"
   version="1.1"
   inkscape:version="0.92.2 2405546, 2018-03-11"
   sodipodi:docname="folder-documents-symbolic.svg">
  <defs
     id="defs9" />
  <sodipodi:namedview
     pagecolor="#ffffff"
     bordercolor="#666666"
     borderopacity="1"
     objecttolerance="10"
     gridtolerance="10"
     guidetolerance="10"
     inkscape:pageopacity="0"
     inkscape:pageshadow="2"
     inkscape:window-width="1920"
     inkscape:window-height="1010"
     id="namedview7"
     showgrid="false"
     inkscape:zoom="20.85965"
     inkscape:cx="-16.270844"
     inkscape:cy="8.5303153"
     inkscape:window-x="0"
     inkscape:window-y="32"
     inkscape:window-maximized="1"
     inkscape:current-layer="layer13" />
  <metadata
     id="metadata90">
    <rdf:RDF>
      <cc:Work
         rdf:about="">
        <dc:format>image/svg+xml</dc:format>
        <dc:type
           rdf:resource="http://purl.org/dc/dcmitype/StillImage" />
        <dc:title>Gnome Symbolic Icon Theme</dc:title>
      </cc:Work>
    </rdf:RDF>
  </metadata>
  <title
     id="title9167">Gnome Symbolic Icon Theme</title>
  <g
     id="layer13"
     transform="translate(-481 -195)">
    <path
       style="color:#000000;text-indent:0;text-transform:none;fill:#bebebe"
       d="M 1.8125 0 C 1.334418 0.091222 0.9914236 0.5133685 1 1 L 1 15 C 1.0000552 15.552262 1.4477381 15.999945 2 16 L 14 16 C 14.552262 15.999945 14.999945 15.552262 15 15 L 15 4.5625 C 15.0062 4.2949353 14.9049 4.0360495 14.71875 3.84375 L 11.15625 0.28125 C 10.96395 0.0951043 10.705065 -0.00619885 10.4375 0 L 2 0 C 1.968767 -0.001466 1.937483 -0.001466 1.90625 0 C 1.875017 -0.001466 1.843733 -0.001466 1.8125 0 z M 3 2 L 10 2 L 10 5 L 13 5 L 13 14 L 3 14 L 3 2 z M 4 7 L 4 8 L 11.046875 8 L 11.046875 7 L 4 7 z M 4 9 L 4 10 L 12.046875 10 L 12.046875 9 L 4 9 z M 4.09375 11 L 4.09375 12 L 10.046875 12 L 10.046875 11 L 4.09375 11 z "
       transform="translate(481,195)"
       id="path5003" />
  </g>
</svg>
